svg/glass_tulip.svg

<svg xmlns="http://www.w3.org/2000/svg" viewBox="0 0 24 24"><path d="M8 2h8c-.33.67-.67 1.33-.42 3s1.09 4.33.67 5.74c-.42 1.4-2.08 1.54-2.92 3.12-.83 1.58-.83 4.61-.25 6.04.59 1.43 1.75 1.27 2.34 1.35.58.08.58.42.58.75H8c0-.33 0-.67.58-.75.59-.08 1.75.08 2.34-1.35.58-1.43.58-4.46-.25-6.04-.84-1.58-2.5-1.72-2.92-3.12-.42-1.41.42-4.07.67-5.74S8.33 2.67 8 2m2 2c0 1.19-.17 2.17-.36 3h4.63c-.14-.83-.27-1.81-.27-3z"/></svg>

<?xml version="1.0" encoding="UTF-8"?><!DOCTYPE svg PUBLIC "-//W3C//DTD SVG 1.1//EN" "http://www.w3.org/Graphics/SVG/1.1/DTD/svg11.dtd"><svg xmlns="http://www.w3.org/2000/svg" xmlns:xlink="http://www.w3.org/1999/xlink" version="1.1" id="mdi-glass-tulip" width="24" height="24" viewBox="0 0 24 24"><path d="M8,2H16C15.67,2.67 15.33,3.33 15.58,5C15.83,6.67 16.67,9.33 16.25,10.74C15.83,12.14 14.17,12.28 13.33,13.86C12.5,15.44 12.5,18.47 13.08,19.9C13.67,21.33 14.83,21.17 15.42,21.25C16,21.33 16,21.67 16,22H8C8,21.67 8,21.33 8.58,21.25C9.17,21.17 10.33,21.33 10.92,19.9C11.5,18.47 11.5,15.44 10.67,13.86C9.83,12.28 8.17,12.14 7.75,10.74C7.33,9.33 8.17,6.67 8.42,5C8.67,3.33 8.33,2.67 8,2M10,4C10,5.19 9.83,6.17 9.64,7H14.27C14.13,6.17 14,5.19 14,4H10Z" /></svg>
